X: 119
T: REEL: Callaghan's
T: Cal Callaghan's
C: C: Trad.; S: Denis Murphy & Julia Clifford
C: Set Leaders: Anton, Oliushka, Sophie
Z: Anton Zille ed. arr.; Bregolas at The Session
N: https://thesession.org/members/26966/sets/63225
R: Reel
M: 4/4
L: 1/8
Q: 1/2=100
K: Dmaj
"D"F2 AF "G"GE~E2|"D"FDDF "A"ABAG|"D"F2 AF "G"GE~E2|"D"FA"G"GE "D"DF"A"AG|
"D"F2~F2 "G"GEEG|"D"FDDF "A"ABAG|"D"EFAF "G"GE~E2|"A"AFGE "D"D2 A/B/c||
"D"d2 fd dcAB|"G"AG E/F/G "A"A2 Bc|"D"d2~d2 dcAB|"C"=cd"A"AB "G"~G2 FG|
"D"Ad~d2 dcAB|"G"AG E/F/G "A"ABcA|"Bm"d2~d2 defd|"G"defd "A"dcAG||

